X:1
T:Title
%%score [ 1 ( 2 3 ) 4 5 ]
L:1/8
Q:1/4=96
M:4/4
K:F
V:1 treble nm="S"
V:2 treble nm="A"
V:3 treble 
V:4 treble-8 nm="T"
V:5 bass nm="B"
V:1
!p!"^Langsam" c2 | c3 c d2 d2 | e4 f2 (AB) | c2 d2 G2 B2 | A6 c2 | c3 c d2 d2 | e4 f2 (ed) | %7
w: Zur|ew'- gen Ruh' sie|san- gen die _|schö- ne Mül- le-|rin, die|Ster- be- glo- cken|klan- gen noch _|
 c3 d e2 =B2 | A6 c2 | c3 c d2 d2 | e4 f2 (AB) | c2 d2 G2 B2 | A6 c2 | c3 c d2 d2 | e4 f2 (ed) | %15
w: ü- bern Wald- grund|hin. Da|steht ein Fels so|küh- le, wo _|kei- ne Wan- drer|geh'n, noch|ein- mal nach der|Müh- le wollt' _|
 c3 d e2 =B2 |!pp! A6 A2 | c3 c A2 A2 | c4 A2!pp! _e2 | _e3 e (gf) (ef) | g6 g2 | ^c3 c c2 g2 | %22
w: dort der Jä- ger|seh'n. Die|Wäl- der rau- schten|lei- se, sein|Ja- gen war _ vor- *|bei, der|blies so ir- rer|
 ^c4 c2 =e2 | ^c2 =e2 c2 e2 |!<(! ^c6!<)!!>)!!>(! c2 | d2 A2 B2 =c2 | _e4 d2 d2 | c3 c _e2 e2 | %28
w: Wei- se, als|müsst' das Herz ent-|zwei, und|still dann in der|Run- de ward's|ü- ber Thal und|
 d6 d2 | ^G3 G G2 G2 | A4 B2 B2 | A3 A A2 A2 | !fermata!A8 |] %33
w: Höh'n, man|hat seit die- ser|Stun- de ihn|nim- mer- mehr ge-|seh'n.|
V:2
!p! A2 | A3 A B2 B2 | B4 A2 (AB) | c2 d2 F2 E2 | F6 A2 | A3 A =B2 B2 | c4 F2 A2 | A3 A A2 ^G2 | %8
w: ||||||||
 A6 A2 | A3 A _B2 B2 | B4 A2 (AB) | c2 d2 F2 E2 | F6 A2 | A3 A =B2 B2 | c4 F2 A2 | A3 A A2 ^G2 | %16
w: ||||||||
!pp! A6 A2 | ^F3 F F2 F2 | ^F4 F2!pp! G2 | G3 G (B_A) (GA) | B6 B2 | G3 G G2 B2 | G4 G2 G2 | %23
w: |Wäl- der rau- schten|lei- se, sein|Ja- gen war _ vor- *|bei, der|blies so ir- rer|Wei- se, als|
 G2 G2 G2 G2 |!<(! G6!<)!!>)!!>(! G2 | ^F2 F2 F2 F2 | G4 G2 G2 | G3 G G2 A2 | B6 (DE) | %29
w: müsst' das Herz ent-|zwei, und|still dann in der|Run- de ward's|ü- ber Thal und|Höh'n, man _|
 F2 (DE) F2 (DE) | F4 E2 D2 | ^C3 C C2 C2 | !fermata![A,D]8 |] %33
w: hat seit _ die- ser _|Stun- de ihn|nim- mer- mehr ge-|seh'n.|
V:3
 C2 | C3 C D2 D2 | E4 F2 (A,B,) | C2 D2 G,2 B,2 | A,6 C2 | C3 C D2 D2 | E4 F2 (ED) | C3 D E2 =B,2 | %8
w: Zur|ew'- gen Ruh' sie|san- gen die _|schö- ne Mül- le-|rin, die|Ster- be- glo- cken|klan- gen noch _|ü- bern Wald- grund|
 A,6 C2 | C3 C D2 D2 | E4 F2 (A,B,) | C2 D2 G,2 B,2 | A,6 C2 | C3 C D2 D2 | E4 F2 (ED) | %15
w: hin. Da|steht ein Fels so|küh- le, wo _|kei- ne Wan- drer|geh'n, noch|ein- mal nach der|Müh- le wollt' _|
 C3 D E2 =B,2 | A,6 A2 | x8 | x8 | x8 | x8 | x8 | x8 | x8 | x8 | x8 | x8 | x8 | x8 | x8 | x8 | x8 | %32
w: dort der Jä- ger|seh'n. Die||||||||||||||||
 x8 |] %33
w: |
V:4
!p! c2 | c3 c B2 B2 | B4 c2 (AB) | c2 d2 c2 c2 | c6 A2 | A3 A F2 F2 | E4 c2 c2 | c3 f e2 e2 | %8
w: Zur|ew'- gen Ruh' sie|san- gen die _|schö- ne Mül- le-|rin, die|Ster- be- glo- cken|klan- gen noch|ü- bern Wald- grund|
 A6 c2 | c3 c B2 B2 | B4 c2 (AB) | c2 d2 B2 c2 | c6 A2 | A3 A F2 F2 | E4 c2 c2 | c3 f e2 e2 | %16
w: hin. Da|steht ein Fels so|küh- le, wo _|kei- ne Wan- drer|geh'n, noch|ein- mal nach der|Müh- le wollt'|dort der Jä- ger|
!pp! A6 A2 | _e3 e A2 A2 | _e4 A2!pp! e2 | _e3 e B2 B2 | _e6 e2 | _e3 e e2 B2 | _e4 e2 _d2 | %23
w: seh'n. Die|Wäl- der rau- schten|lei- se, sein|Ja- gen war vor-|bei, der|blies so ir- rer|Wei- se, als|
 _e2 _d2 e2 d2 |!<(! (_e4!<)!!>(! =e2)!>)! e2 | =d2 d2 d2 c2 | B4 B2 B2 | B3 B B2 c2 | d6 DE | %29
w: müsst' das Herz ent-|zwei, _ und|still dann in der|Run- de ward's|ü- ber Thal und|Höh'n, man _|
 F2 (DE) F2 (DE) | F4 E2 D2 | G3 G G2 G2 | !fermata!^F8 |] %33
w: hat seit _ die- ser _|Stun- de ihn|nim- mer- mehr ge-|seh'n.|
V:5
!p! A,2 | A,3 A, G,2 G,2 | G,4 F,2 z2 | z2 B,,2 C,3 C, | F,3 F, F,2 F,2 | F,3 F, D,2 D,2 | %6
w: Zur|ew'- gen Ruh' sie|san- gen|die schö- ne|Mül- le- rin, die|Ster- be- glo- cken|
 C,4 A,,2 F,2 | E,3 D, C,2 E,2 | A,6 A,2 | A,3 A, G,2 G,2 | G,4 F,2 z2 | z2 B,,2 C,3 C, | %12
w: klan- gen noch|ü- bern Wald- grund|hin. Da|steht ein Fels so|küh- le,|wo kei- ne|
 F,3 F, F,2 F,2 | F,3 F, D,2 D,2 | C,4 A,,2 F,2 | E,3 D, C,2 E,2 |!pp! A,6 A,2 | D,3 D, D,2 D,2 | %18
w: Wan- drer geh'n, noch|ein- mal nach der|Müh- le wollt'|dort der Jä- ger|seh'n. Die|Wäl- der rau- schten|
 D,4 D,2 z2 | z8 | z4 z2!pp! _E,2 | B,3 B, B,2 _E,2 | B,4 B,2 _E,2 | B,2 _E,2 B,2 E,2 | %24
w: lei- se,||der|blies so ir- rer|Wei- se, als|müsst' das Herz ent-|
!<(! B,6!<)!!>)!!>(! B,2 | A,2 C2 B,2 A,2 | G,4 G,2 =F,2 | _E,3 E, F,2 F,2 | B,,6 B,,2 | %29
w: zwei, und|still dann in der|Run- de ward's|ü- ber Thal und|Höh'n, man|
 B,,3 B,, B,,2 B,,2 | A,,4 G,,2 G,,2 | A,,3 A,, A,,2 A,,2 | !fermata![D,,D,]8 |] %33
w: hat seit die- ser|Stun- de ihn|nim- mer- mehr ge-|seh'n.|

